X: 1
T: The Shaskeen
R: reel
M: 4/4
L: 1/8
K: Gmaj
E | DG~G2 AGAB | cded cAAc | BG~G2 AF~F2 | GBAG FD~D2 |
DG~G2 AGAB | cded cAAg | f2fe fdcA | BGAF G~G2 :|
B | dggf g2fg | abag fddc | BG~G2 AF~F2 | GBAG FDD |
|1 B| dggf g2fg | abag fddc | BG~G2 AF~F2 | GBAF G~G2 :|
|2 A | BG~G2 cA~A2 | d^cde dcAg | ~f2fe fdcA | BGAF G3 ||


Tune 615	Setting 24716

